!!!Melodie: eigene
!!!Typ: Lied
**kern	**silbe	**silbe	**silbe	**silbe	**silbe	**silbe	**silbe	**silbe
*clefG2	*lang:DE	*lang:DE	*lang:DE	*lang:DE	*lang:DE	*lang:DE	*lang:DE	*lang:DE
*M4/4	*	*	*	*	*	*	*	*
*met(c)	*	*	*	*	*	*	*	*
2r	%	%	%	%	%	%	%	%
=|:	=	=	=	=	=	=	=	=
4r	%	%	%	%	%	%	%	%
4cc	Ein’	er	Mit	es	Und	so	Das	er
2cc	fe#	hilft	un#	streit'	wenn	fürch#	Wort	ist
2cc	#ste	uns	#ser'	für	die	#ten	sie	bei
2g	Burg	frei	Macht	uns	Welt	wir	sol#	uns
4a	ist	aus	ist	der	voll	uns	#len	wohl
(2cc	un#	al#	nichts	rech#	Teu#	nicht	las#	auf
4b)	|	|	|	|	|	|	|	|
2a	#ser	#ler	ge#	#te	#fel	so	#sen	dem
2g	Gott,	Not,	#tan,	Mann,	wär’	sehr,	stahn	Plan
=	=	=	=	=	=	=	=	=
4r	%	%	%	%	%	%	%	%
4cc	ein’	die	wir	den	und	es	und	mit
2b	gu#	uns	sind	Gott	wollt'	soll	kein	sei#
2a	#te	jetzt	gar	hat	uns	uns	Dank	#nem
2g	Wehr	hat	bald	selbst	gar	doch	da#	Geist
4a	und	be#	ver#	er#	ver#	ge#	#zu	und
(2f	Waf#	#trof#	#lo#	#ko#	#schling#	#ling#	ha#	Ga#
4e	|	|	|	|	|	|	|	|
2d)	|	|	|	|	|	|	|	|
2c	#fen.	#fen.	#ren:	#ren.	#en,	#en.	#ben.	#ben.
=:|	=	=	=	=	=	=	=	=
4r	.	%	.	%	.	%	.	%
4c	.	Der	.	Fragst	.	Der	.	Neh#
(4.e	.	alt’	.	du,	.	Fürst	.	#men
8f	.	|	.	|	.	|	.	|
4g)	.	|	.	|	.	|	.	|
(2a	.	bö#	.	wer	.	die#	.	sie
2g)	.	|	.	|	.	|	.	|
4f#	.	#se	.	der	.	#ser	.	den
2g	.	Feind	.	ist:	.	Welt,	.	Leib,
=	=	=	=	=	=	=	=	=
2c	.	mit	.	Er	.	wie	.	Gut,
2g	.	Ernst	.	heißt	.	sau’r	.	Ehr’,
2a	.	er's	.	Je#	.	er	.	Kind
2b	.	jetzt	.	#sus	.	sich	.	und
2cc	.	meint,	.	Christ,	.	stellt,	.	Weib;
=	=	=	=	=	=	=	=	=
2r	.	%	.	%	.	%	.	%
2b	.	groß’	.	der	.	tut	.	lass
2cc	.	Macht	.	Herr	.	er	.	fah#
2b	.	und	.	Ze#	.	uns	.	#ren
2a	.	viel	.	#ba#	.	doch	.	da#
2g	.	List	.	#oth,	.	nichts,	.	#hin,
=	=	=	=	=	=	=	=	=
2a	.	sein’	.	und	.	das	.	sie
2a	.	grau#	.	ist	.	macht,	.	ha#
4g	.	#sam'	.	kein	.	er	.	#ben's
2a	.	Rü#	.	an#	.	ist	.	kein
4g	.	#stung	.	#der'	.	ge#	.	Ge#
2e	.	ist;	.	Gott,	.	#richt',	.	#winn:
=	=	=	=	=	=	=	=	=
4r	.	%	.	%	.	%	.	%
4cc	.	auf	.	das	.	ein	.	das
2b	.	Erd’	.	Feld	.	Wört#	.	Reich
2a	.	ist	.	muss	.	#lein	.	muss
2g	.	nicht	.	er	.	kann	.	uns
4a	.	sein’s#	.	be#	.	ihn	.	doch
(2f	.	#glei#	.	#hal#	.	fäl#	.	blei#
4e	.	|	.	|	.	|	.	|
2d)	.	|	.	|	.	|	.	|
1;c	.	#chen!	.	#ten!	.	#len!	.	#ben!
==	==	==	==	==	==	==	==	==
*-	*-	*-	*-	*-	*-	*-	*-	*-
